Newaita/actions/22/edit-guides.svg

<svg height="22" viewBox="0 0 22 22" width="22" xmlns="http://www.w3.org/2000/svg"><g fill="#424242"><path d="m5.457031 1.992188c-1.007812 0-1.820312.808593-1.820312 1.816406v14.554687c0 1.007813.8125 1.820313 1.820312 1.820313h10.914063c1.007812 0 1.820312-.8125 1.820312-1.820313v-8.1875h-.003906v-3.636719c0-.238281-.09375-.46875-.265625-.640624l-3.636719-3.636719c-.171875-.171875-.402344-.265625-.640625-.265625h-3.640625v-.003906zm4.546875 1.8125h3.265625l3.105469 3.109374v3.261719h-.003906v7.277344c0 .503906-.402344.910156-.90625.910156h-9.097656c-.503907 0-.910157-.40625-.910157-.910156v-12.734375c0-.503906.40625-.910156.910157-.910156h3.636718zm0 0"/><path d="m9.097656 7.902344c-.269531-.007813-.492187.203125-.492187.472656v5.457031c0 .367188.398437.59375.714843.40625l4.546876-2.730469c.304687-.183593.304687-.625 0-.808593l-4.546876-2.730469c-.070312-.039062-.144531-.0625-.222656-.066406zm0 0"/></g></svg>

<?xml version="1.0" encoding="UTF-8"?>
<svg xmlns="http://www.w3.org/2000/svg" xmlns:xlink="http://www.w3.org/1999/xlink" width="22px" height="22px" viewBox="0 0 22 22" version="1.1">
<g id="surface1">
<path style=" stroke:none;fill-rule:nonzero;fill:rgb(25.882354%,25.882354%,25.882354%);fill-opacity:1;" d="M 5.457031 1.992188 C 4.449219 1.992188 3.636719 2.800781 3.636719 3.808594 L 3.636719 18.363281 C 3.636719 19.371094 4.449219 20.183594 5.457031 20.183594 L 16.371094 20.183594 C 17.378906 20.183594 18.191406 19.371094 18.191406 18.363281 L 18.191406 10.175781 L 18.1875 10.175781 L 18.1875 6.539062 C 18.1875 6.300781 18.09375 6.070312 17.921875 5.898438 L 14.285156 2.261719 C 14.113281 2.089844 13.882812 1.996094 13.644531 1.996094 L 10.003906 1.996094 L 10.003906 1.992188 Z M 10.003906 3.804688 L 13.269531 3.804688 L 16.375 6.914062 L 16.375 10.175781 L 16.371094 10.175781 L 16.371094 17.453125 C 16.371094 17.957031 15.96875 18.363281 15.464844 18.363281 L 6.367188 18.363281 C 5.863281 18.363281 5.457031 17.957031 5.457031 17.453125 L 5.457031 4.71875 C 5.457031 4.214844 5.863281 3.808594 6.367188 3.808594 L 10.003906 3.808594 Z M 10.003906 3.804688 "/>
<path style=" stroke:none;fill-rule:nonzero;fill:rgb(25.882354%,25.882354%,25.882354%);fill-opacity:1;" d="M 9.097656 7.902344 C 8.828125 7.894531 8.605469 8.105469 8.605469 8.375 L 8.605469 13.832031 C 8.605469 14.199219 9.003906 14.425781 9.320312 14.238281 L 13.867188 11.507812 C 14.171875 11.324219 14.171875 10.882812 13.867188 10.699219 L 9.320312 7.96875 C 9.25 7.929688 9.175781 7.90625 9.097656 7.902344 Z M 9.097656 7.902344 "/>
</g>
</svg>
